Numix-GalliumOS/32/mimetypes/application-x-subrip.svg

<?xml version="1.0" encoding="UTF-8" standalone="no"?>
<svg
   xmlns:dc="http://purl.org/dc/elements/1.1/"
   xmlns:cc="http://creativecommons.org/ns#"
   xmlns:rdf="http://www.w3.org/1999/02/22-rdf-syntax-ns#"
   xmlns:svg="http://www.w3.org/2000/svg"
   xmlns="http://www.w3.org/2000/svg"
   xmlns:sodipodi="http://sodipodi.sourceforge.net/DTD/sodipodi-0.dtd"
   xmlns:inkscape="http://www.inkscape.org/namespaces/inkscape"
   width="32"
   viewBox="0 0 32 32"
   height="32"
   id="svg2"
   version="1.1"
   inkscape:version="0.91 r13725"
   sodipodi:docname="application-x-subrip.svg">
  <metadata
     id="metadata14">
    <rdf:RDF>
      <cc:Work
         rdf:about="">
        <dc:format>image/svg+xml</dc:format>
        <dc:type
           rdf:resource="http://purl.org/dc/dcmitype/StillImage" />
        <dc:title />
      </cc:Work>
    </rdf:RDF>
  </metadata>
  <defs
     id="defs12">
    <clipPath
       id="clipPath-156864852">
      <g
         transform="translate(0,-1004.3622)"
         id="g12">
        <path
           style="fill:#1890d0"
           inkscape:connector-curvature="0"
           d="m -24,13 c 0,1.105 -0.672,2 -1.5,2 -0.828,0 -1.5,-0.895 -1.5,-2 0,-1.105 0.672,-2 1.5,-2 0.828,0 1.5,0.895 1.5,2 z"
           transform="matrix(15.333333,0,0,11.5,414.99999,878.8622)"
           id="path14" />
      </g>
    </clipPath>
    <clipPath
       id="clipPath-165128749">
      <g
         transform="translate(0,-1004.3622)"
         id="g17">
        <path
           style="fill:#1890d0"
           inkscape:connector-curvature="0"
           d="m -24,13 c 0,1.105 -0.672,2 -1.5,2 -0.828,0 -1.5,-0.895 -1.5,-2 0,-1.105 0.672,-2 1.5,-2 0.828,0 1.5,0.895 1.5,2 z"
           transform="matrix(15.333333,0,0,11.5,414.99999,878.8622)"
           id="path19" />
      </g>
    </clipPath>
  </defs>
  <sodipodi:namedview
     pagecolor="#ffffff"
     bordercolor="#666666"
     borderopacity="1"
     objecttolerance="10"
     gridtolerance="10"
     guidetolerance="10"
     inkscape:pageopacity="0"
     inkscape:pageshadow="2"
     inkscape:window-width="1920"
     inkscape:window-height="1016"
     id="namedview10"
     showgrid="true"
     inkscape:zoom="22.627417"
     inkscape:cx="16.804755"
     inkscape:cy="16.42353"
     inkscape:window-x="0"
     inkscape:window-y="27"
     inkscape:window-maximized="1"
     inkscape:current-layer="svg2">
    <inkscape:grid
       type="xygrid"
       id="grid4146" />
  </sodipodi:namedview>
  <path
     style="fill:#376a94;fill-opacity:1"
     d="M 5.3333333,0 C 4.6476193,0 4,0.675776 4,1.391304 L 4,30.608696 C 4,31.284472 4.6857147,32 5.3333333,32 L 26.666667,32 C 27.314286,32 28,31.284472 28,30.608696 L 28,9.043478 19,0 Z"
     id="path4"
     inkscape:connector-curvature="0"
     sodipodi:nodetypes="ssssssccs" />
  <path
     style="fill:#ffffff;fill-opacity:0.39200003"
     d="m 19,0 8.992,9 -7.608615,0 C 19.711455,9 19,8.287913 19,7.6153849 L 19,0 Z"
     id="path8"
     inkscape:connector-curvature="0" />
  <g
     transform="matrix(0.58314884,0,0,0.52605821,2.0083911,5.6868117)"
     id="g49"
     style="fill:#ffffff">
    <g
       clip-path="url(#clipPath-165128749)"
       id="g51"
       style="fill:#ffffff">
      <!-- color: #474747 -->
      <g
         id="g53"
         style="fill:#ffffff">
        <path
           d="m 19.191685,12.000931 c -3.926,0 -7.202279,3.877819 -7.202278,7.803819 l 10e-7,3.90191 c 1e-6,3.926 3.276277,7.303574 7.202277,7.303574 l 9.603037,0 c 3.925956,0 7.202277,-3.377573 7.202278,-7.303574 l 0,-3.90191 c 0,-3.926 -3.276278,-7.803819 -7.202278,-7.803819"
           id="path55"
           inkscape:connector-curvature="0"
           style="fill:#ffffff;fill-opacity:1;fill-rule:nonzero;stroke:none"
           sodipodi:nodetypes="cssssssc" />
        <path
           style="fill:#ffffff;fill-opacity:1;fill-rule:nonzero;stroke:none"
           inkscape:connector-curvature="0"
           d="m 33.59624,27.60857 -13.032692,0 -5.144485,9.104455"
           id="path57"
           sodipodi:nodetypes="ccc" />
      </g>
    </g>
  </g>
  <path
     style="fill:#000000;fill-opacity:0.19599998"
     d="m 21,9 7,7 0,-7 z"
     id="path6-4"
     inkscape:connector-curvature="0"
     sodipodi:nodetypes="cccc" />
</svg>

<svg xmlns="http://www.w3.org/2000/svg" viewBox="0 0 32 32">
 <path d="m 5.333 0 c -0.686 0 -1.333 0.676 -1.333 1.391 l 0 29.22 c 0 0.676 0.686 1.391 1.333 1.391 l 21.333 0 c 0.648 0 1.333 -0.716 1.333 -1.391 l 0 -21.565 -9 -9.04" style="fill:#376a94;fill-opacity:1"/>
 <path d="m 19 0 8.992 9 -7.609 0 c -0.672 0 -1.383 -0.712 -1.383 -1.385 l 0 -7.615" style="fill:#fff;fill-opacity:0.392"/>
 <g transform="matrix(0.58314884,0,0,0.52605821,2.0083911,5.6868117)" style="fill:#fff">
  <!-- color: #474747 -->
  <g style="fill:#fff">
   <path d="m 19.19,12 c -3.926,0 -7.202,3.878 -7.202,7.804 l 0,3.902 c 0,3.926 3.276,7.304 7.202,7.304 l 9.603,0 c 3.926,0 7.202,-3.378 7.202,-7.304 l 0,-3.902 C 35.995,15.878 32.719,12 28.793,12" style="fill:#fff;fill-opacity:1;stroke:none;fill-rule:nonzero"/>
   <path d="m 33.596 27.609 -13.03 0 -5.144 9.104" style="fill:#fff;fill-opacity:1;stroke:none;fill-rule:nonzero"/>
  </g>
 </g>
 <path d="m 21 9 7 7 0 -7 z" style="fill:#000;fill-opacity:0.196"/>
</svg>
